logo/xarpes.svg

<?xml version='1.0'?>
<svg xmlns='http://www.w3.org/2000/svg' xmlns:xlink='http://www.w3.org/1999/xlink' width='466' height='100' viewBox='-0.8 0 23.3 5'>
    <defs>
        <g id='xarpes'>
            <path d='M0,1 l3,4 h1.25 l-3,-4 z'/>
            <path d='M0,5 h1.25 l2.85,-3.8 a0.5,0.5,0,0,1,0.9,0.3 v0.5 h-1.25 l-0.75,1 h2 v2 h1 v-3.5 a1.5,1.5,0,0,0,-2.7,-0.9 z'/>
            <path d='M7,5 h1 v-5 h-1 z m0,-2 h1.5 a1.5,1.5,0,0,0,0,-3 h-1.5 v1 h1.5 a0.5,0.5,0,0,1,0,1 h-1.5 z h1.5 a0.5,0.5,0,0,1,0.5,0.5 v1.5 h1 v-1.5 a1.5,1.5,0,0,0,-1.5,-1.5 h-1.5 z'/>
            <path d='M11,5 h1 v-5 h-1 z m0,-2 h1.5 a1.5,1.5,0,0,0,0,-3 h-1.5 v1 h1.5 a0.5,0.5,0,0,1,0,1 h-1.5 z'/>
            <path d='M15,5 h3 v-1 h-2 v-1 h2 v-1 h-2 v-1 h2 v-1 h-3 z'/>
            <path d='M19,5 h1.5 a1.5,1.5,0,0,0,0,-3 a0.5,0.5,0,0,1,0,-1 h1.5 v-1 h-1.5 a1.5,1.5,0,0,0,0,3 a0.5,0.5,0,0,1,0,1 h-1.5 z'/>
        </g>
        <g id='feynman' stroke-linecap='round' stroke-linejoin='round' fill='none'>
            <path d='M2.125,3 l1.575,-2.1 a1,1,0,0,1,1.8,0.6 v1'/>
            <path d='M3.615,1 l0.05,0.35 l-0.4,-0.3 z'/>
            <path transform='translate(1.375, 2) rotate(53.13)' d='M-0.9,0 q0.15,0.3,0.3,0 q0.15,-0.3,0.3,0 q0.15,0.3,0.3,0 q0.15,-0.3,0.3,0 q0.15,0.3,0.3,0 q0.15,-0.3,0.3,0'/>
        </g>
    </defs>
    <use xlink:href='#xarpes' fill='#004e9c' transform='translate(0.5) skewX(-9)'/>
    <use xlink:href='#xarpes' fill='#5db3e6' transform='skewX(-9)'/>
    <use xlink:href='#feynman' stroke='#ffff00' stroke-width='0.2' transform='skewX(-9)'/>
</svg>
<!--
    We choose a slope of 4/3 for the letter x since cos(arcsin(0.8)) = 0.6 (and vice versa) is rational.
    The bottom-left x coordinate is shifted by -0.8 because of the skew: 5 tan(-9 degrees) = -0.7919222.
-->

<?xml version="1.0" encoding="UTF-8" standalone="no"?>
<svg
   width="465.83844"
   height="100"
   viewBox="-1 -0.2 23.291922 5"
   version="1.1"
   id="svg11"
   sodipodi:docname="logo-xARPES5.svg"
   inkscape:version="1.3.2 (1:1.3.2+202311252150+091e20ef0f)"
   xmlns:inkscape="http://www.inkscape.org/namespaces/inkscape"
   xmlns:sodipodi="http://sodipodi.sourceforge.net/DTD/sodipodi-0.dtd"
   xmlns:xlink="http://www.w3.org/1999/xlink"
   xmlns="http://www.w3.org/2000/svg"
   xmlns:svg="http://www.w3.org/2000/svg">
  <sodipodi:namedview
     id="namedview11"
     pagecolor="#ffffff"
     bordercolor="#666666"
     borderopacity="1.0"
     inkscape:showpageshadow="2"
     inkscape:pageopacity="0.0"
     inkscape:pagecheckerboard="0"
     inkscape:deskcolor="#d1d1d1"
     inkscape:zoom="1.9514768"
     inkscape:cx="146.55568"
     inkscape:cy="102.99892"
     inkscape:window-width="2490"
     inkscape:window-height="1376"
     inkscape:window-x="70"
     inkscape:window-y="27"
     inkscape:window-maximized="1"
     inkscape:current-layer="svg11" />
  <defs
     id="defs9">
    <g
       id="xarpes">
      <path
         d="m 0,1 3,4 h 1.25 l -3,-4 z"
         id="path1" />
      <path
         d="M 0,5 H 1.25 L 4.1,1.2 A 0.5,0.5 0 0 1 5,1.5 V 2 H 3.75 L 3,3 H 5 V 5 H 6 V 1.5 A 1.5,1.5 0 0 0 3.3,0.6 Z"
         id="path2" />
      <path
         d="M 7,5 H 8 V 0 H 7 Z M 7,3 h 1.5 a 1.5,1.5 0 0 0 0,-3 H 7 v 1 h 1.5 a 0.5,0.5 0 0 1 0,1 H 7 Z M 7,3 H 8.5 A 0.5,0.5 0 0 1 9,3.5 V 5 h 1 V 3.5 A 1.5,1.5 0 0 0 8.5,2 H 7 Z"
         id="path3" />
      <path
         d="m 11,5 h 1 V 0 h -1 z m 0,-2 h 1.5 a 1.5,1.5 0 0 0 0,-3 H 11 v 1 h 1.5 a 0.5,0.5 0 0 1 0,1 H 11 Z"
         id="path4" />
      <path
         d="m 15,5 h 3 V 4 H 16 V 3 h 2 V 2 H 16 V 1 h 2 V 0 h -3 z"
         id="path5" />
      <path
         d="m 19,5 h 1.5 a 1.5,1.5 0 0 0 0,-3 0.5,0.5 0 0 1 0,-1 H 22 V 0 h -1.5 a 1.5,1.5 0 0 0 0,3 0.5,0.5 0 0 1 0,1 H 19 Z"
         id="path6" />
    </g>
    <g
       id="feynman"
       stroke-linecap="round"
       stroke-linejoin="round"
       fill="none">
      <path
         d="M 2.125,3 3.7,0.9 a 1,1 0 0 1 1.8,0.6 v 1"
         id="path7" />
      <path
         d="m 3.615,1 0.05,0.35 -0.4,-0.3 z"
         id="path8" />
      <path
         transform="rotate(53.13,-1.3125045,2.3750031)"
         d="m -0.9,0 q 0.15,0.3 0.3,0 0.15,-0.3 0.3,0 0.15,0.3 0.3,0 0.15,-0.3 0.3,0 0.15,0.3 0.3,0 0.15,-0.3 0.3,0"
         id="path9" />
    </g>
  </defs>
  <use
     xlink:href="#xarpes"
     fill="#004e9c"
     transform="matrix(1,0,-0.15838444,1,0.2919222,-0.2)"
     id="use9" />
  <use
     xlink:href="#xarpes"
     fill="#5db3e6"
     transform="matrix(1,0,-0.15838444,1,-0.2080778,-0.2)"
     id="use10" />
  <use
     xlink:href="#feynman"
     stroke="#00214e"
     stroke-width="0.2"
     transform="matrix(1,0,-0.15838444,1,-0.2080778,-0.2)"
     id="use11"
     style="fill:#ffcc00;fill-opacity:1;stroke:#ffff00;stroke-opacity:1" />
</svg>
<!--
    We choose a slope of 4/3 for the letter x since cos(arcsin(0.8)) = 0.6 (and vice versa) is rational.
    The bottom-left x coordinate is shifted by -0.8 because of the skew: 5 tan(-9 degrees) = -0.7919222.
-->
